X:407
T:
R:polska
S:Efter kapt. Ahlström, Klintehamn.
O:Gotland, Klintehamn
M:3/4
L:1/16
K:D
A4 d4 d4|d3 d e3 e f3 d|d3 c e4 e4:|
w:Mour, mour, mour! Män va gär-dä däu a brän-nä-väi-nä?
|:e2 f2 d2 e2 c2 e2|e2 e2 a2 a2 g2 f2|e2 f2 d2 e2 c2 e2|
w:Däu, min läi-lä gub-bä, däu, min läi-lä gub-bä, däu, min läi-lä gub-bä,
e2 e2 a2 a2 g2 f2|e3 e c2 c2 A2 A2|A3 A d4 z4:|
w:däu, min läi-lä gub-bä, Minns däu in-tä, däu fikk läi-tä mä?

